src/assets/skills/angular.svg

<svg height="100pt" viewBox="0 0 100 100" width="100pt" xmlns="http://www.w3.org/2000/svg"><path d="m50 0h-50v100h50 50v-100z" fill="#dd0031"/><path d="m50 0v11.1-.05 50.65 38.3h50v-100z" fill="#c3002f"/><path d="m50.046 16-26.759 60h9.977l5.38-13.425h22.712l5.38 13.425h9.977zm7.816 38.299h-15.632l7.816-18.805z" fill="#fff"/></svg>

<?xml version="1.0" encoding="UTF-8" standalone="no"?><!-- Generator: Gravit.io --><svg xmlns="http://www.w3.org/2000/svg" xmlns:xlink="http://www.w3.org/1999/xlink" style="isolation:isolate" viewBox="0 0 100 100" width="100pt" height="100pt"><g><path d=" M 50 0 L 50 0 L 50 0 L 0 0 L 0 100 L 50 100 L 50 100 L 50 100 L 100 100 L 100 0 L 50 0 Z " fill="rgb(221,0,49)"/><path d=" M 50 0 L 50 11.1 L 50 11.05 L 50 61.7 L 50 61.7 L 50 100 L 50 100 L 100 100 L 100 0 L 50 0 L 50 0 Z " fill="rgb(195,0,47)"/><path d=" M 50.046 16 L 23.287 76 L 23.287 76 L 33.264 76 L 33.264 76 L 38.644 62.575 L 61.356 62.575 L 66.736 76 L 66.736 76 L 76.713 76 L 76.713 76 L 50.046 16 L 50.046 16 L 50.046 16 L 50.046 16 L 50.046 16 Z  M 57.862 54.299 L 42.23 54.299 L 50.046 35.494 L 57.862 54.299 Z " fill="rgb(255,255,255)"/></g></svg>
